img/logo.svg

<?xml version="1.0" encoding="UTF-8"?>
<svg id="Calque_1" data-name="Calque 1" xmlns="http://www.w3.org/2000/svg" viewBox="0 0 6.63 5.14">
  <defs>
    <style>
      .cls-1 {
        fill: tomato;
        stroke-width: 0px;
      }
    </style>
  </defs>
  <path class="cls-1" d="M2.98.69v2.08c0,.26-.04.47-.13.62-.13.24-.33.43-.58.56-.25.14-.52.21-.8.21-.36,0-.85-.15-1.47-.46v-1.13c0-.16.03-.28.1-.35.06-.07.15-.1.25-.1s.18.03.25.1c.06.07.1.19.1.35v.67c.31.15.58.22.81.22.12,0,.24-.03.37-.08s.22-.12.29-.2c.06-.08.11-.15.13-.23.01-.04.02-.14.02-.29V.69h-.83c-.17,0-.28-.03-.35-.1-.07-.06-.11-.15-.11-.25s.04-.19.11-.25c.07-.06.19-.1.35-.1h1.92c.16,0,.28.03.35.1.07.06.11.15.11.25s-.03.19-.11.25c-.07.06-.19.1-.35.1h-.4Z"/>
  <path class="cls-1" d="M4.42,3.8v.68h.67c.16,0,.27.03.34.09.07.06.1.14.1.24s-.03.18-.1.24-.18.09-.34.09h-1.43c-.16,0-.27-.03-.34-.09s-.1-.14-.1-.24.03-.18.1-.24c.07-.06.18-.09.34-.09h.1V1.89h-.1c-.16,0-.27-.03-.34-.09s-.1-.14-.1-.24.03-.18.1-.24c.07-.06.18-.09.34-.09h1.52c.45,0,.8.13,1.06.37.26.24.39.54.39.89,0,.19-.04.38-.13.55-.07.13-.18.26-.33.38-.16.13-.32.22-.48.28-.16.06-.38.09-.64.09h-.63ZM4.42,3.05h.61c.29,0,.52-.06.69-.19.17-.13.25-.29.25-.47,0-.15-.07-.29-.2-.41-.14-.12-.33-.17-.59-.17h-.76v1.25Z"/>
</svg>

<?xml version="1.0" encoding="utf-8"?>
<!-- Generator: Adobe Illustrator 25.0.0, SVG Export Plug-In . SVG Version: 6.00 Build 0)  -->
<svg version="1.1" id="Calque_1" xmlns="http://www.w3.org/2000/svg" xmlns:xlink="http://www.w3.org/1999/xlink" x="0px" y="0px"
	 viewBox="0 0 6.6 5.1" style="enable-background:new 0 0 6.6 5.1;" xml:space="preserve">
<style type="text/css">
	.st0{fill:#6366F1;}
</style>
<path class="st0" d="M3,0.7v2.1c0,0.3,0,0.5-0.1,0.6C2.7,3.6,2.5,3.8,2.3,3.9C2,4.1,1.8,4.2,1.5,4.2C1.1,4.2,0.6,4,0,3.7V2.6
	c0-0.2,0-0.3,0.1-0.3c0.1-0.1,0.2-0.1,0.2-0.1s0.2,0,0.3,0.1c0.1,0.1,0.1,0.2,0.1,0.3v0.7C1,3.4,1.3,3.5,1.5,3.5
	c0.1,0,0.2,0,0.4-0.1s0.2-0.1,0.3-0.2C2.2,3.1,2.3,3,2.3,2.9c0,0,0-0.1,0-0.3v-2H1.5c-0.2,0-0.3,0-0.4-0.1C1.1,0.5,1,0.4,1,0.3
	s0-0.2,0.1-0.2S1.3,0,1.5,0h1.9c0.2,0,0.3,0,0.3,0.1c0.1,0.1,0.1,0.2,0.1,0.2s0,0.2-0.1,0.2C3.7,0.6,3.6,0.7,3.4,0.7H3L3,0.7z"/>
<path class="st0" d="M4.4,3.8v0.7h0.7c0.2,0,0.3,0,0.3,0.1s0.1,0.1,0.1,0.2S5.5,5,5.4,5S5.3,5.1,5.1,5.1H3.7c-0.2,0-0.3,0-0.3-0.1
	S3.2,4.9,3.2,4.8s0-0.2,0.1-0.2s0.2-0.1,0.3-0.1h0.1V1.9H3.7c-0.2,0-0.3,0-0.3-0.1S3.2,1.7,3.2,1.6s0-0.2,0.1-0.2s0.2-0.1,0.3-0.1
	h1.5c0.4,0,0.8,0.1,1.1,0.4s0.4,0.5,0.4,0.9c0,0.2,0,0.4-0.1,0.5C6.4,3.2,6.3,3.3,6.2,3.4C6,3.5,5.8,3.6,5.7,3.7S5.3,3.8,5.1,3.8
	L4.4,3.8L4.4,3.8z M4.4,3H5C5.3,3,5.6,3,5.7,2.9C5.9,2.7,6,2.6,6,2.4C6,2.2,5.9,2.1,5.8,2C5.6,1.9,5.4,1.8,5.2,1.8H4.4V3L4.4,3z"/>
</svg>
